app/static/img/wca-logo.svg

<?xml version="1.0" encoding="UTF-8" standalone="no"?>
<!-- Created with Inkscape (http://www.inkscape.org/) -->

<svg
   width="292.72525"
   height="293.19345"
   id="svg2"
   sodipodi:version="0.32"
   inkscape:version="1.3.2 (091e20e, 2023-11-25)"
   sodipodi:docname="WCA Logo.svg"
   inkscape:output_extension="org.inkscape.output.svg.inkscape"
   version="1.0"
   xml:space="preserve"
   inkscape:export-filename="apple-touch-icon.png"
   inkscape:export-xdpi="83.955856"
   inkscape:export-ydpi="83.955856"
   xmlns:inkscape="http://www.inkscape.org/namespaces/inkscape"
   xmlns:sodipodi="http://sodipodi.sourceforge.net/DTD/sodipodi-0.dtd"
   xmlns="http://www.w3.org/2000/svg"
   xmlns:svg="http://www.w3.org/2000/svg"
   xmlns:rdf="http://www.w3.org/1999/02/22-rdf-syntax-ns#"
   xmlns:cc="http://creativecommons.org/ns#"
   xmlns:dc="http://purl.org/dc/elements/1.1/"><defs
     id="defs4"><inkscape:perspective
       sodipodi:type="inkscape:persp3d"
       inkscape:vp_x="0 : 526.18109 : 1"
       inkscape:vp_y="0 : 1000 : 0"
       inkscape:vp_z="744.09448 : 526.18109 : 1"
       inkscape:persp3d-origin="372.04724 : 350.78739 : 1"
       id="perspective10" /><inkscape:perspective
       id="perspective2708"
       inkscape:persp3d-origin="0.5 : 0.33333333 : 1"
       inkscape:vp_z="1 : 0.5 : 1"
       inkscape:vp_y="0 : 1000 : 0"
       inkscape:vp_x="0 : 0.5 : 1"
       sodipodi:type="inkscape:persp3d" /></defs><sodipodi:namedview
     id="base"
     pagecolor="#ffffff"
     bordercolor="#666666"
     borderopacity="1.0"
     gridtolerance="10000"
     guidetolerance="10"
     objecttolerance="10"
     inkscape:pageopacity="0.0"
     inkscape:pageshadow="2"
     inkscape:zoom="2.7459777"
     inkscape:cx="155.31809"
     inkscape:cy="156.22851"
     inkscape:document-units="px"
     inkscape:current-layer="g3312"
     showgrid="false"
     showguides="true"
     inkscape:guide-bbox="true"
     inkscape:window-width="1800"
     inkscape:window-height="1097"
     inkscape:window-x="1"
     inkscape:window-y="44"
     inkscape:showpageshadow="2"
     inkscape:pagecheckerboard="0"
     inkscape:deskcolor="#d1d1d1"
     inkscape:window-maximized="0" /><metadata
     id="metadata7"><rdf:RDF><cc:Work
         rdf:about=""><dc:format>image/svg+xml</dc:format><dc:type
           rdf:resource="http://purl.org/dc/dcmitype/StillImage" /></cc:Work></rdf:RDF></metadata><g
     inkscape:label="Layer 1"
     inkscape:groupmode="layer"
     id="layer1"
     transform="translate(-440.9061,488.30753)"><g
       id="g3312"
       transform="matrix(0.499989,0,0,0.499989,301.618,-244.854)"><path
         style="fill:#ddda45"
         d="m 573.68539,-420.1139 c -0.024,-22.87397 -0.026,-31.86369 -5.7e-4,-66.80447 120.72052,-0.20391 208.79981,73.54821 249.85002,144.7927 -51.70988,30.08713 -57.38751,33.35974 -57.38751,33.35974 -37.92855,-64.86818 -110.15284,-110.57228 -192.46194,-111.34797 z"
         id="path8"
         sodipodi:nodetypes="ccccc" /><path
         style="fill:#ddda45"
         d="m 378.94821,-82.4139 0.0173,-219.96377 190.14321,109.81717 -0.20509,218.9279 C 505.27033,-9.3445518 378.94821,-82.4139 378.94821,-82.4139 Z"
         id="path2730" /><path
         sodipodi:nodetypes="ccccc"
         style="fill:#e7762a"
         d="m 768.51842,-82.684194 c 41.54138,-74.988706 34.9409,-159.138396 -0.0341,-222.019506 0.45369,-1.1825 38.32522,-22.14818 57.38318,-33.37066 58.66,107.44561 41.82569,216.70743 0.16275,288.696156 -23.31082,-13.08668 -35.58051,-20.368143 -57.51178,-33.30599 z"
         id="path2726" /><path
         style="fill:#e02826"
         d="m 316.10392,-337.50816 57.66718,32.38539 c -40.29696,80.9231 -36.51812,142.25774 -0.32872,222.33678 l -57.41881,32.897031 c -57.75083,-104.048031 -41.37164,-214.335501 0.0804,-287.619201 z"
         id="path4" /><path
         style="fill:#e02826"
         d="m 573.67282,-192.56755 c 64.29262,-37.49558 189.67915,-108.93736 189.67915,-108.93736 -0.77393,146.84157 0.0609,9.34343 -0.24972,219.153082 -62.29182,37.076349 -120.52156,69.866445 -189.54695,108.719228 -0.36127,-46.067781 0.11752,-53.392254 0.11752,-218.93495 z"
         id="path2724"
         sodipodi:nodetypes="ccccc" /><path
         sodipodi:nodetypes="ccccc"
         style="fill:#3d9c46"
         d="m 318.88136,-342.33612 c 44.33447,-80.28663 142.73158,-144.80912 249.81078,-144.58165 v 66.80427 c -91.5423,3.25862 -154.86232,49.70195 -192.57246,110.94732 -21.80068,-12.61181 -32.43774,-18.8683 -57.23832,-33.16994 z"
         id="path2722" /><path
         id="path2802"
         d="M 375.79609,-78.705606 C 418.02494,-8.400441 492.50271,31.902242 568.84357,32.845032 l 0.0601,66.636998 C 468.67166,100.09685 370.96205,44.711786 318.49119,-45.589701 Z"
         style="fill:#eeeeec"
         sodipodi:nodetypes="ccccc" /><path
         style="fill:#304a96"
         d="m 381.88504,-306.1007 189.29399,-109.0195 189.59581,109.4965 -189.38407,108.9089 z"
         id="path5" /><path
         style="fill:#304a96"
         d="m 573.684,99.48203 c -0.17174,-25.478794 -0.30174,-43.975796 -0.12918,-66.637364 90.2757,0.02478 165.00317,-60.801773 192.52912,-111.297767 24.80027,14.313198 34.06987,19.70304 57.53369,33.240121 C 742.69236,93.688841 594.44484,99.48203 573.684,99.48203 Z"
         id="path2720"
         sodipodi:nodetypes="ccccc" /><path
         style="fill:#ffffff;fill-opacity:1"
         d="m 525.83331,-54.3672 c 0,-12.8794 -0.18785,-15.0047 -1.45637,-16.4848 -0.80099,-0.9346 -17.74687,-10.5804 -37.65751,-21.4352 -39.42884,-21.4957 -43.11734,-23.7008 -48.34577,-28.9025 -6.35668,-6.3241 -6.38498,-6.4874 -6.709,-38.716 -0.27837,-27.6876 -0.23649,-28.6061 1.36101,-29.7755 3.33671,-2.4428 2.77429,-2.7068 51.01484,23.9423 42.21421,23.3199 40.0044,22.2086 41.00746,20.6232 0.4179,-0.6605 0.7656,-7.8068 0.77262,-15.8805 0.0123,-12.806 -0.17306,-14.891 -1.44365,-16.3366 -1.69762,-1.9317 -79.42814,-45.0687 -85.54321,-47.4727 -14.15961,-5.5667 -23.08701,-3.2054 -27.74994,7.3399 -2.87751,6.5075 -3.41206,13.5011 -3.4028,44.5182 0.0123,40.5305 1.67261,51.2887 10.14752,65.7446 4.12576,7.0375 15.55061,18.6858 23.22072,23.675 3.0309,1.9715 22.87912,13.0527 44.10716,24.6248 28.1953,15.3702 38.87673,20.8086 39.63666,20.1809 0.76092,-0.6286 1.04026,-4.8295 1.04026,-15.6451 z"
         id="path7" /><path
         style="fill:#ffffff;fill-opacity:1"
         d="m 538.00578,-246.4391 c 1.8619,-0.9499 3.94505,-2.5913 4.62923,-3.6475 0.68418,-1.0562 7.14246,-13.2489 14.35183,-27.0948 7.20928,-13.8459 13.36854,-25.1743 13.6872,-25.1743 0.31862,0 6.55669,11.6423 13.86239,25.8717 9.12423,17.7716 14.12647,26.6196 15.97682,28.2602 5.52355,4.8973 15.957,5.3847 22.22718,1.0383 3.11324,-2.1581 5.16527,-5.9004 26.52975,-48.3828 12.73554,-25.3241 22.95226,-46.5735 22.70384,-47.2209 -0.36402,-0.9486 -3.08097,-1.1746 -14.00121,-1.1643 -7.45227,0.01 -13.9729,0.2879 -14.49036,0.6242 -0.5175,0.3362 -7.75215,14.2361 -16.07706,30.8884 -8.41977,16.8422 -15.44834,29.9516 -15.83964,29.5435 -0.38693,-0.4035 -6.40913,-11.7812 -13.38277,-25.2838 -6.97365,-13.5026 -13.60973,-25.8081 -14.74692,-27.3455 -5.58649,-7.5527 -18.99772,-7.7743 -25.18097,-0.416 -1.12534,1.3392 -8.03801,13.9343 -15.36147,27.989 -7.32343,14.0548 -13.51638,25.5579 -13.76209,25.5626 -0.24574,0.01 -6.97247,-13.1925 -14.9484,-29.327 -7.97589,-16.1345 -15.04195,-29.9908 -15.7023,-30.7918 -1.05072,-1.2745 -2.82116,-1.4547 -14.17894,-1.4436 -7.13809,0.01 -13.50438,0.3458 -14.1473,0.7528 -1.28275,0.8121 5.24946,15.0776 30.1353,65.8113 13.38856,27.2946 15.09224,29.8906 21.0805,32.1204 4.29691,1.6001 12.31022,1.0364 16.63539,-1.1701 z"
         id="path6" /><path
         id="path2"
         style="fill:#ffffff;fill-opacity:1"
         d="M 682.22012 -211.44687 C 681.67814 -211.42305 681.10313 -211.3342 680.47789 -211.19686 C 677.2451 -210.48686 672.3051 -205.54148 670.07922 -200.79038 C 669.12328 -198.74989 660.08133 -173.67367 649.98894 -145.0665 C 639.89655 -116.45933 627.29241 -80.775467 621.98051 -65.767882 C 616.6686 -50.760297 612.55536 -38.106269 612.83968 -37.646169 C 613.34501 -36.82857 620.46085 -40.394227 631.10962 -46.802621 L 636.10191 -49.806593 L 643.59036 -71.432069 L 651.08271 -93.053638 L 677.69267 -107.8274 C 692.33007 -115.95179 704.57241 -122.59726 704.8964 -122.59726 C 705.22034 -122.59726 708.17726 -117.71515 711.46685 -111.74546 C 714.75648 -105.77576 718.10071 -100.08755 718.8967 -99.104553 L 720.34205 -97.315451 L 729.81101 -102.69057 C 735.01836 -105.64727 739.39677 -108.68081 739.54169 -109.43291 C 739.68642 -110.185 731.41707 -126.65689 721.16628 -146.03527 C 710.91552 -165.41365 699.22335 -187.56392 695.18134 -195.25901 C 688.2218 -208.5086 686.01397 -211.61361 682.22012 -211.44687 z M 678.42706 -170.61784 C 679.59938 -170.24205 693.22113 -145.09339 692.70472 -144.25789 C 692.24071 -143.50709 667.46986 -129.87262 664.62207 -128.80052 C 663.49731 -128.37712 664.76973 -132.9159 670.44642 -149.55488 C 674.44209 -161.26697 678.03305 -170.74404 678.42706 -170.61784 z " /><g
         id="g1"
         transform="matrix(2.000044,0,0,2.000044,910.09622,-636.42109)"><g
           id="g2"
           transform="matrix(0.12458447,0,0,0.12458447,-46.754768,344.21344)"><g
             id="g3"
             transform="translate(-93.696521,-2082.5864)"><circle
               cx="87.887909"
               cy="2073.0198"
               r="88.5"
               fill="none"
               stroke="#000000"
               stroke-width="20"
               id="circle1" /><path
               d="m 82.487909,2065.0198 c 5.500001,0 9.500001,-1.1 11.900001,-3.2 2.4,-2 3.7,-5.4 3.7,-10.2 0,-4.7 -1.3,-8 -3.7,-10.1 -2.4,-2 -6.4,-3 -11.900001,-3 h -11.2 v 26.5 h 11.2 m -11.2,18.3 v 39 H 44.687911 v -103.1 h 40.599998 c 13.600001,0 23.500001,2.3 29.800001,6.9 6.4,4.5 9.5,11.7 9.5,21.6 0,6.8 -1.6,12.4 -4.9,16.8 -3.3,4.3 -8.2,7.6 -14.9,9.6 3.7,0.9 6.9,2.8 9.8,5.7 2.9,2.9 5.8,7.3 8.7,13.3 l 14.5,29.2 h -28.3 l -12.6,-25.6 c -2.5,-5.1 -5.1,-8.7 -7.7,-10.5 -2.600001,-1.9 -6.100001,-2.9 -10.400001,-2.9 h -7.5"
               id="path1" /></g></g></g></g></g></svg>

<?xml version="1.0" encoding="UTF-8" standalone="no"?>
<!-- Created with Inkscape (http://www.inkscape.org/) -->
<svg
   xmlns:dc="http://purl.org/dc/elements/1.1/"
   xmlns:cc="http://creativecommons.org/ns#"
   xmlns:rdf="http://www.w3.org/1999/02/22-rdf-syntax-ns#"
   xmlns:svg="http://www.w3.org/2000/svg"
   xmlns="http://www.w3.org/2000/svg"
   xmlns:sodipodi="http://sodipodi.sourceforge.net/DTD/sodipodi-0.dtd"
   xmlns:inkscape="http://www.inkscape.org/namespaces/inkscape"
   width="292.72525"
   height="293.19345"
   id="svg2"
   sodipodi:version="0.32"
   inkscape:version="0.46"
   sodipodi:docname="WCAlogo_notxt.svg"
   inkscape:output_extension="org.inkscape.output.svg.inkscape"
   version="1.0">
  <defs
     id="defs4">
    <inkscape:perspective
       sodipodi:type="inkscape:persp3d"
       inkscape:vp_x="0 : 526.18109 : 1"
       inkscape:vp_y="0 : 1000 : 0"
       inkscape:vp_z="744.09448 : 526.18109 : 1"
       inkscape:persp3d-origin="372.04724 : 350.78739 : 1"
       id="perspective10" />
    <inkscape:perspective
       id="perspective2708"
       inkscape:persp3d-origin="0.5 : 0.33333333 : 1"
       inkscape:vp_z="1 : 0.5 : 1"
       inkscape:vp_y="0 : 1000 : 0"
       inkscape:vp_x="0 : 0.5 : 1"
       sodipodi:type="inkscape:persp3d" />
  </defs>
  <sodipodi:namedview
     id="base"
     pagecolor="#ffffff"
     bordercolor="#666666"
     borderopacity="1.0"
     gridtolerance="10000"
     guidetolerance="10"
     objecttolerance="10"
     inkscape:pageopacity="0.0"
     inkscape:pageshadow="2"
     inkscape:zoom="1"
     inkscape:cx="488.82342"
     inkscape:cy="133.91599"
     inkscape:document-units="px"
     inkscape:current-layer="g3312"
     showgrid="false"
     showguides="true"
     inkscape:guide-bbox="true"
     inkscape:window-width="1280"
     inkscape:window-height="821"
     inkscape:window-x="0"
     inkscape:window-y="25" />
  <metadata
     id="metadata7">
    <rdf:RDF>
      <cc:Work
         rdf:about="">
        <dc:format>image/svg+xml</dc:format>
        <dc:type
           rdf:resource="http://purl.org/dc/dcmitype/StillImage" />
      </cc:Work>
    </rdf:RDF>
  </metadata>
  <g
     inkscape:label="Layer 1"
     inkscape:groupmode="layer"
     id="layer1"
     transform="translate(-440.9061,488.30753)">
    <g
       id="g3312"
       transform="matrix(0.499989,0,0,0.499989,301.618,-244.854)">
      <path
         id="path3273"
         d="M 571.26982,-486.6847 C 409.2858,-486.6847 278.58232,-355.6553 278.58232,-193.6712 C 278.58232,-31.6873 408.6538,98.5781 570.63782,98.5781 C 732.62185,98.5781 863.8228,-31.1822 863.8228,-193.1661 C 863.8228,-355.1502 733.49939,-486.7293 571.51536,-486.7293 L 571.26982,-486.6843 L 571.26982,-486.6847 L 571.26982,-486.6847 L 571.26982,-486.6847 L 571.26982,-486.6847 L 571.26982,-486.6847 z M 571.24752,-420.1368 C 696.42968,-420.1368 797.3975,-318.8534 797.3975,-193.6712 C 797.3975,-68.4892 696.42968,32.8575 571.24752,32.8575 C 446.06538,32.8575 344.46627,-68.4892 344.46627,-193.6712 C 344.46627,-318.8534 446.06538,-420.1368 571.24752,-420.1368 L 571.24752,-420.1368 z"
         style="fill:#eeeeec;fill-opacity:1;stroke:none"
         sodipodi:nodetypes="cssscccccccccccc" />
      <path
         sodipodi:nodetypes="ccccccc"
         id="rect2804"
         d="M 379.05952,-304.5234 C 379.05952,-304.5234 571.26044,-415.1347 571.26044,-415.1347 C 571.26044,-415.1347 762.73892,-304.4187 762.73892,-304.4187 L 762.41241,-82.5423 L 570.73597,28.3219 L 378.80699,-82.5424 L 379.05952,-304.5234 L 379.05952,-304.5234 z"
         style="fill:#eeeeec;fill-opacity:1;stroke:none" />
      <path
         sodipodi:nodetypes="ccccscccssscsssssssssssscccsssscssccsssssssccc"
         style="fill:#ddda45"
         d="M 472.98795,-28.0612 L 378.94821,-82.4139 L 378.73696,-191.7161 C 378.62087,-251.8324 378.80806,-301.2785 379.15305,-301.5964 C 379.6077,-302.0154 536.82532,-211.8306 566.01826,-194.4049 L 569.10816,-192.5605 L 569.10816,-83.0968 C 569.10816,3.9396 568.89507,26.3593 568.06788,26.3292 C 567.49573,26.3072 524.70973,1.8328 472.98786,-28.0612 L 472.98795,-28.0612 L 472.98795,-28.0612 L 472.98795,-28.0612 z M 525.83331,-54.3672 C 525.83331,-67.2466 525.64546,-69.3719 524.37694,-70.852 C 523.57595,-71.7866 506.63007,-81.4324 486.71943,-92.2872 C 447.29059,-113.7829 443.60209,-115.988 438.37366,-121.1897 C 432.01698,-127.5138 431.98868,-127.6771 431.66466,-159.9057 C 431.38629,-187.5933 431.42817,-188.5118 433.02567,-189.6812 C 436.36238,-192.124 435.79996,-192.388 484.04051,-165.7389 C 526.25472,-142.419 524.04491,-143.5303 525.04797,-145.1157 C 525.46587,-145.7762 525.81357,-152.9225 525.82059,-160.9962 C 525.83289,-173.8022 525.64753,-175.8872 524.37694,-177.3328 C 522.67932,-179.2645 444.9488,-222.4015 438.83373,-224.8055 C 424.67412,-230.3722 415.74672,-228.0109 411.08379,-217.4656 C 408.20628,-210.9581 407.67173,-203.9645 407.68099,-172.9474 C 407.69329,-132.4169 409.3536,-121.6587 417.82851,-107.2028 C 421.95427,-100.1653 433.37912,-88.517 441.04923,-83.5278 C 444.08013,-81.5563 463.92835,-70.4751 485.15639,-58.903 C 513.35169,-43.5328 524.03312,-38.0944 524.79305,-38.7221 C 525.55397,-39.3507 525.83331,-43.5516 525.83331,-54.3672 L 525.83331,-54.3672 L 525.83331,-54.3672 L 525.83331,-54.3672 z M 761.2232,-316.3149 C 746.21684,-339.4892 728.35992,-358.5343 706.00685,-375.2057 C 670.64686,-401.5778 628.04125,-417.02 583.67191,-419.5454 L 573.68539,-420.1139 L 573.46767,-453.2166 C 573.28506,-480.9985 573.43687,-486.3915 574.41745,-486.7674 C 576.25795,-487.4737 600.80647,-485.5634 613.63141,-483.7159 C 630.77542,-481.2463 645.77645,-477.6385 663.56405,-471.7069 C 681.46704,-465.7369 691.94181,-461.3052 707.97219,-452.9186 C 746.13025,-432.9553 779.4455,-404.5151 805.9129,-369.3096 C 813.5093,-359.2054 823.9248,-343.1903 823.5721,-342.1564 C 823.3331,-341.4559 767.38049,-309.0006 766.46763,-309.033 C 766.16985,-309.043 763.80956,-312.3204 761.2231,-316.3149 L 761.2232,-316.3149 L 761.2232,-316.3149 z"
         id="path2730" />
      <path
         sodipodi:nodetypes="cssscsscccsss"
         style="fill:#e7762a"
         d="M 797.1339,-65.2003 C 782.2581,-73.8437 769.7638,-81.4153 769.36874,-82.0261 C 768.89371,-82.7606 770.1973,-86.226 773.2171,-92.2568 C 805.1639,-156.0569 805.1789,-231.4167 773.2581,-295.1666 C 770.7687,-300.138 768.90041,-304.6445 769.10627,-305.1808 C 769.55996,-306.3633 823.4712,-337.4944 825.2988,-337.6293 C 829.0888,-337.9092 846.7039,-297.6207 853.3578,-273.4542 C 861.1135,-245.2857 864.0281,-223.5511 864.0456,-193.7523 C 864.0636,-164.0911 861.1457,-142.3359 853.3578,-114.0504 C 846.9085,-90.6264 829.3433,-50.1379 825.4153,-49.6412 C 824.7364,-49.5552 812.0098,-56.557 797.1341,-65.2003 L 797.1342,-65.2003 L 797.1342,-65.2003 L 797.1339,-65.2003 z"
         id="path2726" />
      <path
         sodipodi:nodetypes="ccscssssccccccsscccsssssssscccscsccscssssssssscccss"
         style="fill:#e02826"
         d="M 573.2693,-82.9918 L 573.2693,-192.3509 L 581.79945,-197.3257 C 627.91968,-224.223 762.46989,-301.512 762.72696,-301.2549 C 762.90957,-301.0724 763.07866,-251.9492 763.10277,-192.0922 C 763.13817,-102.5647 762.95034,-83.075 762.03973,-82.2112 C 761.4309,-81.6336 723.10874,-59.3457 676.87948,-32.6824 C 630.65018,-6.0191 588.71656,18.1748 583.69362,21.0818 C 578.67066,23.9889 574.27032,26.3674 573.91514,26.3674 C 573.5599,26.3674 573.2693,-22.8442 573.2693,-82.9918 L 573.2693,-82.9918 z M 631.1079,-46.8009 L 636.10115,-49.8059 L 643.59109,-71.4303 L 651.08096,-93.0548 L 677.69444,-107.8266 C 692.33185,-115.951 704.57302,-122.5983 704.89701,-122.5983 C 705.22096,-122.5983 708.17756,-117.7139 711.46716,-111.7442 C 714.75679,-105.7745 718.09945,-100.0859 718.89544,-99.1029 L 720.34267,-97.3157 L 729.81075,-102.6914 C 735.01811,-105.6481 739.39717,-108.6826 739.54209,-109.4347 C 739.68682,-110.1868 731.41844,-126.6573 721.16764,-146.0357 C 710.91687,-165.4141 699.22281,-187.5652 695.18079,-195.2603 C 687.22703,-210.4027 685.48092,-212.2954 680.47899,-211.1967 C 677.2462,-210.4867 672.30382,-205.5421 670.07794,-200.791 C 669.122,-198.7505 660.08242,-173.6752 649.99002,-145.068 C 639.89762,-116.4608 627.2941,-80.7758 621.98219,-65.7682 C 616.67028,-50.7606 612.55685,-38.1051 612.84117,-37.645 C 613.3465,-36.8274 620.45912,-40.3925 631.1079,-46.8009 L 631.1079,-46.8009 L 631.1079,-46.8009 L 631.1079,-46.8009 z M 670.44679,-149.5534 C 674.44247,-161.2655 678.03407,-170.7448 678.42808,-170.6186 C 679.6004,-170.2428 693.2221,-145.0943 692.70569,-144.2588 C 692.24168,-143.508 667.46916,-129.8727 664.62137,-128.8006 C 663.49661,-128.3772 664.7701,-132.9144 670.44679,-149.5534 L 670.44679,-149.5534 z M 309.66304,-62.055 C 296.05917,-89.4215 287.34557,-116.0777 282.45311,-145.2945 C 279.64941,-162.0376 278.66686,-174.8178 278.66686,-194.5433 C 278.66686,-233.1394 285.66945,-269.1738 300.02248,-304.4363 C 303.67924,-313.4202 314.71409,-336.2304 316.05492,-337.5771 C 316.59853,-338.123 370.29737,-307.9918 373.01808,-305.6142 C 373.41825,-305.2645 371.6823,-300.9242 369.16036,-295.9691 C 357.29257,-272.6512 349.48986,-246.6403 345.98682,-218.7186 C 344.48337,-206.7351 344.69933,-178.5368 346.39047,-166.009 C 350.08936,-138.6085 357.9972,-112.9662 369.7008,-90.4218 C 372.69521,-84.6538 373.28716,-82.8825 372.48165,-82.1009 C 370.73034,-80.4014 317.93105,-50.196 316.71173,-50.196 C 316.05815,-50.196 313.00277,-55.3365 309.66304,-62.055 L 309.66304,-62.055 L 309.66304,-62.055 L 309.66304,-62.055 z"
         id="path2724" />
      <path
         sodipodi:nodetypes="cscccccssssccccc"
         style="fill:#3d9c46"
         d="M 348.17729,-324.8134 C 333.10141,-333.5091 320.27469,-341.1156 319.67346,-341.7169 C 318.77077,-342.6195 319.53612,-344.3173 324.06648,-351.4627 C 363.96184,-414.3853 428.34384,-460.5108 501.1427,-478.3263 C 521.53705,-483.3172 540.78851,-485.9826 559.95393,-486.4687 L 568.69214,-486.6903 L 568.69214,-453.4019 L 568.69214,-420.1135 L 558.70561,-419.5367 C 518.23384,-417.1994 479.87916,-404.4524 446.60838,-382.2817 C 431.77592,-372.3978 423.34138,-365.5211 411.38065,-353.5604 C 399.74405,-341.9238 392.67812,-333.3128 383.36266,-319.416 C 379.6808,-313.9234 376.42529,-309.3335 376.12822,-309.2162 C 375.83106,-309.099 363.25321,-316.1176 348.17729,-324.8133 L 348.17729,-324.8134 L 348.17729,-324.8134 L 348.17729,-324.8134 z"
         id="path2722" />
      <path
         id="path2802"
         d="M 347.01646,-62.8538 C 361.93976,-71.415 374.74411,-78.4495 375.47061,-78.4863 C 376.34422,-78.5303 378.69355,-75.6688 382.40647,-70.0381 C 421.68559,-10.4714 486.94159,27.2215 558.11099,31.4523 C 563.66109,31.7821 568.49799,32.4173 568.85949,32.8638 C 569.65669,33.8479 569.66139,96.102 568.85949,97.7522 C 567.20689,101.1744 523.50839,96.2852 499.25269,89.9644 C 470.98019,82.5968 450.70019,74.2536 424.88489,59.3694 C 399.18855,44.5544 381.80695,31.1498 361.20493,10.2625 C 344.14381,-7.0347 317.86234,-42.4909 319.39618,-46.141 C 319.66115,-46.7719 332.08819,-54.2926 347.01136,-62.8537 L 347.01131,-62.8536 L 347.01131,-62.8536 L 347.01646,-62.8538 z"
         style="fill:#eeeeec"
         sodipodi:nodetypes="cssscsscccsss" />
      <path
         sodipodi:nodetypes="ccccssssssssccccsssccccssssssssssssssssssssssccc"
         style="fill:#304a96"
         d="M 573.684,98.65 C 573.44504,98.0271 573.34745,82.913 573.46752,65.0631 L 573.68554,32.6089 L 583.67207,32.0322 C 624.11123,29.6967 662.53636,16.923 695.79802,-5.2418 C 710.51658,-15.0499 718.98659,-21.963 730.9824,-33.9589 C 742.65743,-45.634 749.75794,-54.2788 759.01508,-68.0885 C 762.69691,-73.5811 765.964,-78.1749 766.27536,-78.2969 C 766.95892,-78.5648 821.1392,-47.3527 822.7002,-45.7918 C 823.6083,-44.8837 822.8846,-43.2549 818.5002,-36.34 C 790.6681,7.5567 749.74254,44.5989 703.43278,67.809 C 665.38783,86.877 628.26571,96.6013 583.47258,99.233 C 575.96916,99.674 574.0328,99.5586 573.68415,98.65 L 573.684,98.65 L 573.684,98.65 L 573.684,98.65 z M 475.70481,-251.0165 C 424.10406,-280.8551 381.88516,-305.643 381.88504,-306.1007 C 381.8847,-307.3027 569.09163,-415.1202 571.17903,-415.1202 C 573.51044,-415.1202 761.63959,-306.4708 760.77484,-305.6237 C 758.89415,-303.7812 572.24872,-196.6722 570.993,-196.7148 C 570.18521,-196.7428 527.30557,-221.1779 475.70481,-251.0165 L 475.70481,-251.0165 z M 538.00578,-246.4391 C 539.86768,-247.389 541.95083,-249.0304 542.63501,-250.0866 C 543.31919,-251.1428 549.77747,-263.3355 556.98684,-277.1814 C 564.19612,-291.0273 570.35538,-302.3557 570.67404,-302.3557 C 570.99266,-302.3557 577.23073,-290.7134 584.53643,-276.484 C 593.66066,-258.7124 598.6629,-249.8644 600.51325,-248.2238 C 606.0368,-243.3265 616.47025,-242.8391 622.74043,-247.1855 C 625.85367,-249.3436 627.9057,-253.0859 649.27018,-295.5683 C 662.00572,-320.8924 672.22244,-342.1418 671.97402,-342.7892 C 671.61,-343.7378 668.89305,-343.9638 657.97281,-343.9535 C 650.52054,-343.9435 643.99991,-343.6656 643.48245,-343.3293 C 642.96495,-342.9931 635.7303,-329.0932 627.40539,-312.4409 C 618.98562,-295.5987 611.95705,-282.4893 611.56575,-282.8974 C 611.17882,-283.3009 605.15662,-294.6786 598.18298,-308.1812 C 591.20933,-321.6838 584.57325,-333.9893 583.43606,-335.5267 C 577.84957,-343.0794 564.43834,-343.301 558.25509,-335.9427 C 557.12975,-334.6035 550.21708,-322.0084 542.89362,-307.9537 C 535.57019,-293.8989 529.37724,-282.3958 529.13153,-282.3911 C 528.88579,-282.3811 522.15906,-295.5836 514.18313,-311.7181 C 506.20724,-327.8526 499.14118,-341.7089 498.48083,-342.5099 C 497.43011,-343.7844 495.65967,-343.9646 484.30189,-343.9535 C 477.1638,-343.9435 470.79751,-343.6077 470.15459,-343.2007 C 468.87184,-342.3886 475.40405,-328.1231 500.28989,-277.3894 C 513.67845,-250.0948 515.38213,-247.4988 521.37039,-245.269 C 525.6673,-243.6689 533.68061,-244.2326 538.00578,-246.4391 L 538.00578,-246.4391 L 538.00578,-246.4391 z"
         id="path2720" />
    </g>
  </g>
</svg>
